lib/flags/uz-uzbekistan.svg

<svg xmlns="http://www.w3.org/2000/svg" fill="none" aria-hidden="true" viewBox="0 0 42 30"><g id="Country=UZ - Uzbekistan, Size=sm (36x24)" filter="url(#filter0_dd_91_24212)"><g clip-path="url(#clip0_91_24212)"><g id="flag"><mask id="mask0_91_24212" width="36" height="24" x="3" y="2" maskUnits="userSpaceOnUse" style="mask-type:alpha"><rect id="mask" width="36" height="24" x="3" y="2" fill="white"/></mask><g mask="url(#mask0_91_24212)"><g id="contents"><path id="bottom" fill="#14DC5A" fill-rule="evenodd" d="M3 18H39V26H3V18Z" clip-rule="evenodd"/><path id="top" fill="#0099B5" fill-rule="evenodd" d="M3 2H39V12H3V2Z" clip-rule="evenodd"/><path id="middle" fill="#F7FCFF" stroke="#C51918" d="M0.75 11.5H0.25V12V18V18.5H0.75H41.25H41.75V18V12V11.5H41.25H0.75Z"/><g id="mark"><path id="Combined Shape" fill="#F7FCFF" fill-rule="evenodd" d="M19.359 5.00662L18.6018 5.38058L18.818 4.62053L18.0927 4.06202H19.0401L19.3578 3.34277L19.7304 4.06202H20.538L19.9034 4.62053L20.2085 5.38058L19.359 5.00662ZM15.2997 7.29745L16.0569 6.92349L16.9065 7.29745L16.6014 6.5374L17.2359 5.97889H16.4283L16.0557 5.25964L15.738 5.97889H14.7907L15.516 6.5374L15.2997 7.29745ZM12.4811 8.96133L11.7239 9.3353L11.9402 8.57525L11.2149 8.01673H12.1622L12.48 7.29749L12.8525 8.01673H13.6601L13.0256 8.57525L13.3307 9.3353L12.4811 8.96133ZM16.0569 8.96133L15.2997 9.3353L15.516 8.57525L14.7907 8.01673H15.738L16.0557 7.29749L16.4283 8.01673H17.2359L16.6014 8.57525L16.9065 9.3353L16.0569 8.96133ZM19.4094 8.96133L18.6522 9.3353L18.8684 8.57525L18.1431 8.01673H19.0905L19.4082 7.29749L19.7808 8.01673H20.5884L19.9538 8.57525L20.2589 9.3353L19.4094 8.96133ZM18.6522 7.29745L19.4094 6.92349L20.2589 7.29745L19.9538 6.5374L20.5884 5.97889H19.7808L19.4082 5.25964L19.0905 5.97889H18.1431L18.8684 6.5374L18.6522 7.29745ZM22.0265 9.3353L22.7837 8.96133L23.6333 9.3353L23.3282 8.57525L23.9627 8.01673H23.1551L22.7825 7.29749L22.4648 8.01673H21.5175L22.2428 8.57525L22.0265 9.3353ZM22.7837 6.92349L22.0265 7.29745L22.2428 6.5374L21.5175 5.97889H22.4648L22.7825 5.25964L23.1551 5.97889H23.9627L23.3282 6.5374L23.6333 7.29745L22.7837 6.92349ZM21.976 5.38058L22.7331 5.00662L23.5827 5.38058L23.2776 4.62053L23.9122 4.06202H23.1046L22.732 3.34277L22.4143 4.06202H21.4669L22.1922 4.62053L21.976 5.38058ZM26.1926 8.96133L25.4354 9.3353L25.6517 8.57525L24.9264 8.01673H25.8737L26.1915 7.29749L26.564 8.01673H27.3716L26.7371 8.57525L27.0422 9.3353L26.1926 8.96133ZM25.4354 7.29745L26.1926 6.92349L27.0422 7.29745L26.7371 6.5374L27.3716 5.97889H26.564L26.1915 5.25964L25.8737 5.97889H24.9264L25.6517 6.5374L25.4354 7.29745ZM26.1422 5.00662L25.385 5.38058L25.6013 4.62053L24.876 4.06202H25.8233L26.1411 3.34277L26.5136 4.06202H27.3212L26.6867 4.62053L26.9918 5.38058L26.1422 5.00662ZM9.62052 10.2409C9.62052 10.2409 6.90269 9.58564 6.95387 7.16215C7.00505 4.73867 9.75 4.10946 9.75 4.10946C8.62841 3.73192 5.31204 4.23852 5.25082 7.13758C5.1896 10.0366 8.57542 10.6078 9.62052 10.2409Z" clip-rule="evenodd"/></g></g></g></g></g></g><defs><filter id="filter0_dd_91_24212" width="42" height="30" x="0" y="0" color-interpolation-filters="sRGB" filterUnits="userSpaceOnUse"><feFlood flood-opacity="0" result="BackgroundImageFix"/><feColorMatrix in="SourceAlpha" result="hardAlpha" values="0 0 0 0 0 0 0 0 0 0 0 0 0 0 0 0 0 0 127 0"/><feOffset dy="1"/><feGaussianBlur stdDeviation="1"/><feColorMatrix values="0 0 0 0 0.0627451 0 0 0 0 0.0941176 0 0 0 0 0.156863 0 0 0 0.06 0"/><feBlend in2="BackgroundImageFix" result="effect1_dropShadow_91_24212"/><feColorMatrix in="SourceAlpha" result="hardAlpha" values="0 0 0 0 0 0 0 0 0 0 0 0 0 0 0 0 0 0 127 0"/><feOffset dy="1"/><feGaussianBlur stdDeviation="1.5"/><feColorMatrix values="0 0 0 0 0.0627451 0 0 0 0 0.0941176 0 0 0 0 0.156863 0 0 0 0.1 0"/><feBlend in2="effect1_dropShadow_91_24212" result="effect2_dropShadow_91_24212"/><feBlend in="SourceGraphic" in2="effect2_dropShadow_91_24212" result="shape"/></filter><clipPath id="clip0_91_24212"><rect width="36" height="24" x="3" y="2" fill="white" rx="2"/></clipPath></defs></svg>

<svg xmlns="http://www.w3.org/2000/svg" fill="none" aria-hidden="true" viewBox="0 0 42 30"><g filter="url(#a)"><g clip-path="url(#b)"><mask id="c" width="36" height="24" x="3" y="2" maskUnits="userSpaceOnUse" style="mask-type:alpha"><path fill="#fff" d="M3 2h36v24H3z"/></mask><g mask="url(#c)"><path fill="#14DC5A" fill-rule="evenodd" d="M3 18h36v8H3v-8Z" clip-rule="evenodd"/><path fill="#0099B5" fill-rule="evenodd" d="M3 2h36v10H3V2Z" clip-rule="evenodd"/><path fill="#F7FCFF" stroke="#C51918" d="M.75 11.5h-.5v7h41.5v-7h-41Z"/><path fill="#F7FCFF" fill-rule="evenodd" d="m19.359 5.007-.757.374.216-.76-.725-.559h.947l.318-.72.372.72h.808l-.635.559.306.76-.85-.374Zm-4.06 2.29.758-.374.85.374-.306-.76.635-.558h-.808l-.372-.72-.318.72h-.947l.725.558-.216.76Zm-2.818 1.664-.757.374.216-.76-.725-.558h.947l.318-.72.372.72h.808l-.634.558.305.76-.85-.374Zm3.576 0-.757.374.216-.76-.725-.558h.947l.318-.72.372.72h.808l-.635.558.306.76-.85-.374Zm3.352 0-.757.374.216-.76-.725-.558h.947l.318-.72.373.72h.807l-.634.558.305.76-.85-.374Zm-.757-1.664.757-.374.85.374-.305-.76.634-.558h-.807l-.373-.72-.318.72h-.947l.725.558-.216.76Zm3.374 2.038.758-.374.85.374-.306-.76.635-.558h-.808l-.373-.72-.317.72h-.948l.726.558-.216.76Zm.758-2.412-.758.374.217-.76-.726-.558h.948l.317-.72.373.72h.808l-.635.558.305.76-.85-.374Zm-.808-1.542.757-.374.85.374-.305-.76.634-.559h-.807l-.373-.72-.318.72h-.947l.725.559-.216.76Zm4.217 3.58-.758.374.217-.76-.726-.558h.948l.318-.72.372.72h.808l-.635.558.305.76-.85-.374Zm-.758-1.664.758-.374.85.374-.306-.76.635-.558h-.808l-.372-.72-.318.72h-.948l.726.558-.217.76Zm.707-2.29-.757.374.216-.76-.725-.559h.947l.318-.72.373.72h.807l-.634.559.305.76-.85-.374ZM9.621 10.24s-2.718-.655-2.667-3.079C7.005 4.74 9.75 4.11 9.75 4.11c-1.122-.377-4.438.13-4.5 3.029-.06 2.899 3.325 3.47 4.37 3.103Z" clip-rule="evenodd"/></g></g></g><defs><clipPath id="b"><rect width="36" height="24" x="3" y="2" fill="#fff" rx="2"/></clipPath><filter id="a" width="42" height="30" x="0" y="0" color-interpolation-filters="sRGB" filterUnits="userSpaceOnUse"><feFlood flood-opacity="0" result="BackgroundImageFix"/><feColorMatrix in="SourceAlpha" result="hardAlpha" values="0 0 0 0 0 0 0 0 0 0 0 0 0 0 0 0 0 0 127 0"/><feOffset dy="1"/><feGaussianBlur stdDeviation="1"/><feColorMatrix values="0 0 0 0 0.0627451 0 0 0 0 0.0941176 0 0 0 0 0.156863 0 0 0 0.06 0"/><feBlend in2="BackgroundImageFix" result="effect1_dropShadow_91_24212"/><feColorMatrix in="SourceAlpha" result="hardAlpha" values="0 0 0 0 0 0 0 0 0 0 0 0 0 0 0 0 0 0 127 0"/><feOffset dy="1"/><feGaussianBlur stdDeviation="1.5"/><feColorMatrix values="0 0 0 0 0.0627451 0 0 0 0 0.0941176 0 0 0 0 0.156863 0 0 0 0.1 0"/><feBlend in2="effect1_dropShadow_91_24212" result="effect2_dropShadow_91_24212"/><feBlend in="SourceGraphic" in2="effect2_dropShadow_91_24212" result="shape"/></filter></defs></svg>
